X:6
T:Sheet 6 — Jazz Inversions
T:(7ths, 1st and 2nd inversions)
M:4/4
L:1/4
K:Eb
%%score {1 2}
V:1 clef=treble name="RH"
V:2 clef=bass name="LH"
[V:1] "^②m7 ¹"[EFAc] "^③m7 ¹"[FGBd] "^④Δ ¹"[G,A,CE] "^⑤7 ¹"[A,B,DF] |
[V:2] "_1233"[E,F,A,C] "_2233"[F,G,B,D] "_3233"[G,,A,,C,E,] "_4233"[A,,B,,D,F,] |
[V:1] "^⑥m7 ¹"[B,CEG] "^⑦ø7 ¹"[CDFA] "^①Δ ¹"[DEGB] "^④Δ ²"[EGAc] |
[V:2] "_5233"[B,,C,E,G,] "_6233"[C,D,F,A,] "_7233"[D,E,G,B,] "_1323"[E,G,A,C] |
[V:1] "^⑤7 ²"[FABd] "^⑥m7 ²"[G,B,CE] "^⑦ø7 ²"[A,CDF] "^①Δ ²"[B,DEG] |
[V:2] "_2323"[F,A,B,D] "_3323"[G,,B,,C,E,] "_4323"[A,,C,D,F,] "_5323"[B,,D,E,G,] |
[V:1] "^②m7 ²"[CEFA] "^③m7 ²"[DFGB] z z |
[V:2] "_6323"[C,E,F,A,] "_7323"[D,F,G,B,] z z |

